images/premier_studios.svg

<?xml version="1.0" encoding="UTF-8" standalone="no"?><svg viewBox="0 0 128 128" version="1.1" xmlns="http://www.w3.org/2000/svg"><g id="logo" fill="#ffffff" transform="translate(1.7885725,-1.7885736)"><path d="M 90.578125,41.285156 88.179688,43.683594 72.03125,27.535156 74.429688,25.136719 Z m -7.933594,-29.875 C 82.207031,10.734375 82.28125,9.820312 82.875,9.226562 c 0.683594,-0.683593 1.789062,-0.683593 2.472656,0 0.679688,0.679688 0.679688,1.789063 0,2.46875 -0.449218,0.449219 -1.078125,0.601563 -1.648437,0.464844 -4.425781,14.726563 -3.742188,14.007813 11.527343,7.308594 -0.398437,-0.820312 -0.257812,-1.84375 0.425782,-2.523438 0.859375,-0.863281 2.257812,-0.863281 3.121094,0 0.859374,0.859376 0.859374,2.257813 0,3.117188 -0.683594,0.683594 -1.703126,0.824219 -2.527344,0.425781 -6.699219,15.269531 -7.417969,15.953125 7.312496,11.527344 -0.14062,-0.570313 0.0156,-1.199219 0.46094,-1.648437 0.67969,-0.679688 1.78906,-0.679688 2.46875,0 0.6836,0.683593 0.6836,1.789062 0,2.472656 -0.59375,0.59375 -1.50781,0.667968 -2.18359,0.230468 -2.78516,2.054688 -10.703128,6.644532 -13.132815,7.621094 L 75.027344,24.542969 C 76,22.113281 80.59375,14.195312 82.644531,11.410156 Z M 86.398438,25.8125 c -0.367188,-0.367188 -0.964844,-0.367188 -1.332032,0 -0.367187,0.367188 -0.367187,0.960938 0,1.328125 0.367188,0.367187 0.964844,0.367187 1.332032,0 0.367187,-0.367187 0.367187,-0.960937 0,-1.328125 z m 3.507812,3.507812 c -0.367188,-0.367187 -0.964844,-0.367187 -1.332031,0 -0.367188,0.367188 -0.367188,0.960938 0,1.328126 0.367187,0.367187 0.964843,0.367187 1.332031,0 0.363281,-0.367188 0.363281,-0.960938 0,-1.328126 z m 0.648438,-4.160156 c -0.367188,-0.363281 -0.964844,-0.363281 -1.332032,0 -0.367187,0.367188 -0.367187,0.964844 0,1.332032 0.367188,0.367187 0.964844,0.367187 1.332032,0 0.367187,-0.367188 0.367187,-0.964844 0,-1.332032 z m -3.167969,-7.003906 -1.515625,4.4375 C 82.8125,23.6875 81.699219,22.796875 82.601562,19.023438 l 4.03125,-1.601563 c -0.06641,-0.15625 -0.105468,-0.328125 -0.113281,-0.511719 -0.01953,-0.761718 0.582031,-1.398437 1.34375,-1.417968 0.765625,-0.02344 1.398438,0.582031 1.421875,1.34375 0.01953,0.761718 -0.582031,1.398437 -1.34375,1.417968 -0.195312,0.0039 -0.382812,-0.03125 -0.554687,-0.09766 z M 97.5625,28.328125 c -0.07031,-0.167969 -0.105469,-0.355469 -0.101562,-0.554687 0.01953,-0.761719 0.65625,-1.363282 1.417968,-1.34375 0.765625,0.02344 1.367184,0.660156 1.343754,1.421874 -0.0195,0.761719 -0.656254,1.363282 -1.417972,1.34375 -0.179688,-0.0078 -0.355469,-0.04687 -0.511719,-0.113281 l -1.597657,4.03125 c -3.777343,0.902344 -4.667968,-0.210937 -3.574218,-3.265625 z m 0,0"/><path d="M 17.421875,122.86328 V 29.828125 c 7.335937,-4.246094 15.847656,-6.679687 24.929687,-6.679687 9.078126,0 17.589844,2.433593 24.925782,6.679687 v 18.25 h 18.25 c 4.246094,7.335937 6.679687,15.851563 6.679687,24.929687 0,9.078126 -2.433593,17.589844 -6.679687,24.925782 H 42.351562 V 122.86328 Z M 42.351562,48.589844 v 48.832031 c 13.472657,0 24.414063,-10.941406 24.414063,-24.414063 0,-13.476562 -10.941406,-24.417968 -24.414063,-24.417968 z m 0,0"/></g></svg>

<?xml version="1.0" encoding="UTF-8"?><svg xmlns="http://www.w3.org/2000/svg" viewBox="0 0 128 128" version="1.1"><g id="logo" fill="white"><path d="M 90.578125 41.285156 L 88.179688 43.683594 L 72.03125 27.535156 L 74.429688 25.136719 Z M 82.644531 11.410156 C 82.207031 10.734375 82.28125 9.820312 82.875 9.226562 C 83.558594 8.542969 84.664062 8.542969 85.347656 9.226562 C 86.027344 9.90625 86.027344 11.015625 85.347656 11.695312 C 84.898438 12.144531 84.269531 12.296875 83.699219 12.160156 C 79.273438 26.886719 79.957031 26.167969 95.226562 19.46875 C 94.828125 18.648438 94.96875 17.625 95.652344 16.945312 C 96.511719 16.082031 97.910156 16.082031 98.773438 16.945312 C 99.632812 17.804688 99.632812 19.203125 98.773438 20.0625 C 98.089844 20.746094 97.070312 20.886719 96.246094 20.488281 C 89.546875 35.757812 88.828125 36.441406 103.558594 32.015625 C 103.417969 31.445312 103.574219 30.816406 104.019531 30.367188 C 104.699219 29.6875 105.808594 29.6875 106.488281 30.367188 C 107.171875 31.050781 107.171875 32.15625 106.488281 32.839844 C 105.894531 33.433594 104.980469 33.507812 104.304688 33.070312 C 101.519531 35.125 93.601562 39.714844 91.171875 40.691406 L 75.027344 24.542969 C 76 22.113281 80.59375 14.195312 82.644531 11.410156 Z M 86.398438 25.8125 C 86.03125 25.445312 85.433594 25.445312 85.066406 25.8125 C 84.699219 26.179688 84.699219 26.773438 85.066406 27.140625 C 85.433594 27.507812 86.03125 27.507812 86.398438 27.140625 C 86.765625 26.773438 86.765625 26.179688 86.398438 25.8125 Z M 89.90625 29.320312 C 89.539062 28.953125 88.941406 28.953125 88.574219 29.320312 C 88.207031 29.6875 88.207031 30.28125 88.574219 30.648438 C 88.941406 31.015625 89.539062 31.015625 89.90625 30.648438 C 90.269531 30.28125 90.269531 29.6875 89.90625 29.320312 Z M 90.554688 25.160156 C 90.1875 24.796875 89.589844 24.796875 89.222656 25.160156 C 88.855469 25.527344 88.855469 26.125 89.222656 26.492188 C 89.589844 26.859375 90.1875 26.859375 90.554688 26.492188 C 90.921875 26.125 90.921875 25.527344 90.554688 25.160156 Z M 87.386719 18.15625 L 85.871094 22.59375 C 82.8125 23.6875 81.699219 22.796875 82.601562 19.023438 L 86.632812 17.421875 C 86.566406 17.265625 86.527344 17.09375 86.519531 16.910156 C 86.5 16.148438 87.101562 15.511719 87.863281 15.492188 C 88.628906 15.46875 89.261719 16.074219 89.285156 16.835938 C 89.304688 17.597656 88.703125 18.234375 87.941406 18.253906 C 87.746094 18.257812 87.558594 18.222656 87.386719 18.15625 Z M 97.5625 28.328125 C 97.492188 28.160156 97.457031 27.972656 97.460938 27.773438 C 97.480469 27.011719 98.117188 26.410156 98.878906 26.429688 C 99.644531 26.453125 100.246094 27.089844 100.222656 27.851562 C 100.203125 28.613281 99.566406 29.214844 98.804688 29.195312 C 98.625 29.1875 98.449219 29.148438 98.292969 29.082031 L 96.695312 33.113281 C 92.917969 34.015625 92.027344 32.902344 93.121094 29.847656 Z M 97.5625 28.328125 "/><path d="M 17.421875 122.863281 L 17.421875 29.828125 C 24.757812 25.582031 33.269531 23.148438 42.351562 23.148438 C 51.429688 23.148438 59.941406 25.582031 67.277344 29.828125 L 67.277344 48.078125 L 85.527344 48.078125 C 89.773438 55.414062 92.207031 63.929688 92.207031 73.007812 C 92.207031 82.085938 89.773438 90.597656 85.527344 97.933594 L 42.351562 97.933594 L 42.351562 122.863281 Z M 42.351562 48.589844 L 42.351562 97.421875 C 55.824219 97.421875 66.765625 86.480469 66.765625 73.007812 C 66.765625 59.53125 55.824219 48.589844 42.351562 48.589844 Z M 42.351562 48.589844 "/></g></svg>
